icon/pk/map-draw.svg

<svg width="48" height="48" fill="none" xmlns="http://www.w3.org/2000/svg"><path d="M17 12 4 6v30l13 6 14-6 13 6V12L31 6l-14 6Z" fill="#2F88FF" stroke="#000" stroke-width="4" stroke-linecap="round" stroke-linejoin="round"/><path d="M31 6v30M17 12v30" stroke="#fff" stroke-width="4" stroke-linecap="round" stroke-linejoin="round"/><path d="m10.5 9 6.5 3 14-6 6.5 3M10.5 39l6.5 3 14-6 6.5 3" stroke="#000" stroke-width="4" stroke-linecap="round" stroke-linejoin="round"/></svg>

<svg viewBox="0 0 48 48" fill="none" xmlns="http://www.w3.org/2000/svg" height="1em" width="1em">
  <path d="M17 12L4 6V36L17 42L31 36L44 42V12L31 6L17 12Z" fill="#2F88FF" stroke="black" stroke-width="4" stroke-linecap="round" stroke-linejoin="round"/>
  <path d="M31 6V36" stroke="white" stroke-width="4" stroke-linecap="round" stroke-linejoin="round"/>
  <path d="M17 12V42" stroke="white" stroke-width="4" stroke-linecap="round" stroke-linejoin="round"/>
  <path d="M10.5 9L17 12L31 6L37.5 9" stroke="black" stroke-width="4" stroke-linecap="round" stroke-linejoin="round"/>
  <path d="M10.5 39L17 42L31 36L37.5 39" stroke="black" stroke-width="4" stroke-linecap="round" stroke-linejoin="round"/>
</svg>
